!!!OTL: Bugao buai haorencai
!!!ARE: Asia, China,ÿTaiwan, Xinzhu, Zhongli
!! IV, 644
!!!SCT: C1710
!!!YEM: Copyright 1995, estate of Helmut Schaffrath.
**kern
*ICvox
*Ivox
*M2/4
*k[f#]
*G:
{8b
32ee
32b
32ee
32ee
12b
12ee
12b
=1
2gg}
=2
{8ee
8ee
8ee
[8b
=3
4b]
12ee
12b
12ee
=4
8ee
16gg
16aa
16bb
16gg#
16aa
16gg#
=5
2ee}
=6
{2bb
=7
8ee
4.gg}
==
!!!AGN: Shange, Dashange diao
!!!AMT: simple duple
!!!AIN: vox
!!!EED: Helmut Schaffrath
!!!EEV: 1.0
*-
!!!ONB: Tied note syntax fixed by Craig Sapp, 2004/05/03/
